packages/core/src/Assets/SvgComponents/header/deriv-logo-light.svg

<svg width="120" height="20" viewBox="0 0 120 20" fill="none" xmlns="http://www.w3.org/2000/svg">
<g clip-path="url(#clip0)">
<path d="M4.5699 0.100098L4.5651 0.122298L12.1614 9.9977L0.0048 19.8743L0 19.8956H12.2805C14.0209 19.8959 15.71 19.3063 17.0721 18.223C18.4342 17.1398 19.389 15.6268 19.7805 13.931L20.7972 9.5267C21.0576 8.39851 21.0602 7.2261 20.8045 6.09681C20.5489 4.96752 20.0418 3.91046 19.3209 3.00439C18.6 2.09832 17.684 1.3666 16.641 0.863746C15.598 0.360888 14.4551 0.099856 13.2972 0.100098H4.5699Z" fill="url(#paint0_linear)"/>
<path d="M12.1557 10.0178L6.8166 19.8956H0L12.1557 10.0178Z" fill="#CC2F3E"/>
<path d="M30.5556 0.100098H38.2761C44.4975 0.100098 48.0429 4.3703 47.0607 9.9401L47.0505 9.9965C46.0683 15.5675 41.007 19.8944 34.7856 19.8944H27.0654L30.5556 0.100098ZM35.4786 15.9647C37.1637 15.9921 38.8017 15.4088 40.0901 14.3224C41.3785 13.2361 42.2302 11.7201 42.4878 10.0547L42.4977 9.998C43.116 6.4901 41.1459 4.0301 37.5828 4.0301H34.2177L32.1135 15.9638L35.4786 15.9647Z" fill="#0F0F0F"/>
<path d="M52.7943 0.100098H67.8672L67.1841 3.9743H56.4381L55.7298 7.9901H62.574L61.89 11.8643H55.0467L54.3138 16.0214H65.0598L64.3767 19.8956H49.3038L52.7943 0.100098Z" fill="#0F0F0F"/>
<path d="M81.9174 12.8258C84.5988 11.8925 86.6778 9.8858 87.2412 6.6893L87.2514 6.6326C87.5814 4.7663 87.2607 3.2108 86.3514 2.108C85.281 0.807198 83.4543 0.100098 80.9376 0.100098H71.8881L68.3976 19.8956H72.7527L75.5499 4.0301H79.8768C81.9975 4.0301 83.1291 4.9916 82.8 6.8579L82.7898 6.9146C82.4958 8.5829 81.0798 9.7142 78.9594 9.7142H75.678L80.4162 19.8947H85.5066L81.9174 12.8258Z" fill="#0F0F0F"/>
<path d="M92.4135 0.100098H96.7686L93.2781 19.8956H88.923L92.4135 0.100098Z" fill="#0F0F0F"/>
<path d="M100.29 0.100098H105.063L107.76 13.943L115.339 0.100098H120L108.563 19.8956H104.745L100.29 0.100098Z" fill="#0F0F0F"/>
</g>
<defs>
<linearGradient id="paint0_linear" x1="13.2648" y1="-3.3115" x2="9.321" y2="21.5654" gradientUnits="userSpaceOnUse">
<stop stop-color="#F26447"/>
<stop offset="1" stop-color="#EF4852"/>
</linearGradient>
<clipPath id="clip0">
<rect width="120" height="19.8" fill="white" transform="translate(0 0.100098)"/>
</clipPath>
</defs>
</svg>

<svg width="120" height="20" fill="none" xmlns="http://www.w3.org/2000/svg"><g clip-path="url(#prefix__clip0)"><path d="M4.57.1l-.005.022 7.596 9.876L.005 19.874 0 19.896h12.28a7.696 7.696 0 007.5-5.965l1.017-4.404A7.695 7.695 0 0013.297.1H4.57z" fill="url(#prefix__paint0_linear)"/><path d="M12.156 10.018l-5.34 9.878H0l12.156-9.878z" fill="#CC2F3E"/><path d="M30.556.1h7.72c6.221 0 9.767 4.27 8.785 9.84l-.01.056c-.983 5.572-6.044 9.898-12.265 9.898h-7.72L30.555.1zm4.923 15.865a6.978 6.978 0 007.009-5.91l.01-.057c.618-3.508-1.352-5.968-4.915-5.968h-3.365l-2.105 11.934h3.366zM52.794.1h15.073l-.683 3.874H56.438L55.73 7.99h6.844l-.684 3.874h-6.843l-.733 4.157H65.06l-.683 3.875H49.304L52.794.1zM81.917 12.826c2.682-.934 4.76-2.94 5.324-6.137l.01-.056c.33-1.867.01-3.422-.9-4.525C85.281.808 83.454.1 80.938.1h-9.05l-3.49 19.796h4.355L75.55 4.03h4.327c2.12 0 3.252.962 2.923 2.828l-.01.057c-.294 1.668-1.71 2.8-3.83 2.8h-3.282l4.738 10.18h5.09l-3.589-7.07zM92.413.1h4.356l-3.49 19.796h-4.356L92.413.1zM100.29.1h4.773l2.697 13.843L115.339.1H120l-11.437 19.796h-3.818L100.29.1z" fill="#0F0F0F"/></g><defs><linearGradient id="prefix__paint0_linear" x1="13.265" y1="-3.312" x2="9.321" y2="21.565" gradientUnits="userSpaceOnUse"><stop stop-color="#F26447"/><stop offset="1" stop-color="#EF4852"/></linearGradient><clipPath id="prefix__clip0"><path fill="#fff" transform="translate(0 .1)" d="M0 0h120v19.8H0z"/></clipPath></defs></svg>
